img/icons-payable-taxes/12.svg

<svg width="50" height="48" viewBox="0 0 50 48" fill="none" xmlns="http://www.w3.org/2000/svg">
<path d="M48.9409 15.5135C49.5883 14.9614 50 14.1406 50 13.225C50 11.5663 48.6506 10.2169 46.992 10.2169H38.1592L39.3173 7.74758C39.489 7.38176 39.3314 6.94602 38.9655 6.77444C38.5997 6.60266 38.164 6.76028 37.9924 7.1262L36.5428 10.2169H35.2935C35.2935 10.1379 35.2935 10.0939 35.2935 10.0939C35.2935 7.90373 33.5117 6.122 31.3216 6.122H30.6004L29.4497 3.54241C29.2697 3.08538 29.3206 2.56516 29.5868 2.14836C29.8443 1.74524 30.2597 1.50061 30.7262 1.47688C30.7538 1.47551 30.7816 1.47483 30.8097 1.47483C31.3223 1.47483 31.7919 1.71145 32.0983 2.12385C32.2364 2.30959 32.4542 2.41917 32.6857 2.41917C32.9172 2.41917 33.1351 2.30959 33.2731 2.12385C33.5796 1.71135 34.0492 1.47483 34.5618 1.47483C35.0744 1.47483 35.544 1.71145 35.8505 2.12385C35.9886 2.30959 36.2063 2.41917 36.4379 2.41917C36.6694 2.41917 36.8872 2.30959 37.0253 2.12385C37.3317 1.71135 37.8014 1.47483 38.314 1.47483C38.342 1.47483 38.3698 1.47561 38.3971 1.47688C38.8639 1.50061 39.2792 1.74524 39.5367 2.14836C39.8019 2.56331 39.8535 3.08088 39.6761 3.53655L39.4032 4.11829C39.2315 4.48411 39.3891 4.91985 39.755 5.09143C40.1209 5.26331 40.5565 5.10559 40.7282 4.73967L41.0105 4.13782C41.0163 4.12561 41.0217 4.11321 41.0268 4.10071C41.3886 3.20305 41.2927 2.17864 40.77 1.36057C40.2545 0.55354 39.4166 0.0633057 38.4709 0.0153565C38.4188 0.0127198 38.3666 0.0113525 38.314 0.0113525C37.6309 0.0113525 36.9702 0.243189 36.4379 0.653638C35.9057 0.243189 35.245 0.0113525 34.5618 0.0113525C33.8786 0.0113525 33.2181 0.243189 32.6857 0.653638C32.1535 0.243189 31.4929 0.0113525 30.8097 0.0113525C30.757 0.0113525 30.7048 0.0127198 30.6524 0.0153565C29.707 0.0633057 28.8691 0.55354 28.3536 1.36057C27.831 2.17864 27.7351 3.20305 28.0969 4.10071C28.1002 4.10901 28.1036 4.11721 28.1072 4.12532L28.9979 6.122H28.59C26.9867 6.122 25.4983 6.84446 24.5063 8.10403L22.1038 11.1548C21.5846 11.8142 20.8054 12.1924 19.9662 12.1924H17.7907V12.04C17.7907 11.4235 17.2892 10.9219 16.6726 10.9219H1.11816C0.50166 10.9219 0 11.4235 0 12.04V25.8323C0 26.4489 0.501562 26.9505 1.11816 26.9505H9.33145C9.73555 26.9505 10.0632 26.623 10.0632 26.2188C10.0632 25.8146 9.73555 25.487 9.33145 25.487H1.46348V12.3853H16.3273V25.487H12.7607C12.3566 25.487 12.029 25.8146 12.029 26.2188C12.029 26.623 12.3566 26.9505 12.7607 26.9505H16.6727C17.2892 26.9505 17.7908 26.4489 17.7908 25.8323V25.3041H19.5662C20.1959 25.3041 20.8103 25.5247 21.2963 25.9251L22.9434 27.2821L22.0664 28.8388C20.7792 31.124 20.2262 33.7121 20.4672 36.3238C20.7082 38.9354 21.7256 41.3787 23.4093 43.3897C25.8564 46.3125 29.4463 47.9888 33.2582 47.9888H35.8656C39.6776 47.9888 43.2675 46.3125 45.7146 43.3897C47.3982 41.3787 48.4156 38.9354 48.6566 36.3238C48.8977 33.7121 48.3446 31.124 47.0574 28.8388L46.239 27.386C46.2592 27.2455 46.2701 27.1021 46.2701 26.9562C46.2701 26.3708 46.1015 25.8244 45.8111 25.3618C47.2893 25.1729 48.4357 23.9077 48.4357 22.3791C48.4357 21.7444 48.2376 21.1553 47.9007 20.6695C49.1165 20.2832 50 19.1441 50 17.8021C50 16.8864 49.5883 16.0656 48.9409 15.5135ZM22.2267 24.7956C21.4793 24.1797 20.5344 23.8406 19.566 23.8406H17.7906V13.6558H19.9661C21.2567 13.6558 22.4549 13.0742 23.2534 12.0603L25.656 9.0095C26.3687 8.10442 27.4381 7.58538 28.5899 7.58538H31.3215C32.7047 7.58538 33.83 8.71067 33.83 10.0939V16.1183C33.83 16.8871 33.2044 17.5127 32.4355 17.5127C31.6666 17.5127 31.0411 16.8871 31.0411 16.1183V10.9487C31.0411 10.5445 30.7135 10.2169 30.3094 10.2169C29.9053 10.2169 29.5776 10.5445 29.5776 10.9487V15.5044L23.6728 25.9868L22.2267 24.7956ZM47.1993 36.1893C46.9858 38.5033 46.0844 40.6684 44.5925 42.4502C42.4241 45.04 39.2433 46.5253 35.8656 46.5253H33.2582C29.8805 46.5253 26.6997 45.04 24.5313 42.4502C23.0395 40.6684 22.138 38.5033 21.9245 36.1893C21.7109 33.8752 22.2009 31.5818 23.3415 29.557L30.0377 17.67C30.1328 17.8165 30.2409 17.9537 30.3605 18.0802C30.3619 18.0817 30.3634 18.0831 30.3647 18.0846C30.6652 18.4018 31.0086 18.6362 31.3853 18.785C31.7936 19.9622 32.9131 20.8101 34.2275 20.8101H34.2736C33.993 21.2672 33.8309 21.8045 33.8309 22.3791C33.8309 23.5899 34.5504 24.6352 35.5839 25.1117C35.1869 25.6215 34.9496 26.2614 34.9496 26.9561C34.9496 28.6147 36.299 29.9641 37.9576 29.9641H43.2623C44.133 29.9641 44.9182 29.5918 45.4679 28.9986L45.7824 29.557C46.9229 31.5818 47.4129 33.8752 47.1993 36.1893ZM36.4128 26.9561C36.4128 26.1044 37.1057 25.4115 37.9574 25.4115H43.2621C44.1138 25.4115 44.8067 26.1044 44.8067 26.9561C44.8067 27.8077 44.1139 28.5006 43.2621 28.5006H37.9574C37.1058 28.5006 36.4128 27.8077 36.4128 26.9561ZM45.4277 23.9237H36.8387C35.987 23.9237 35.2941 23.2308 35.2941 22.3791C35.2941 21.5275 35.987 20.8345 36.8387 20.8345H45.4277C46.2794 20.8345 46.9723 21.5275 46.9723 22.3791C46.9723 23.2308 46.2794 23.9237 45.4277 23.9237ZM46.992 19.3466H34.2273C33.7995 19.3466 33.4133 19.1705 33.1337 18.8884C33.6917 18.7462 34.2025 18.4364 34.5851 18C35.0085 17.5169 35.2571 16.8976 35.2889 16.2575H46.992C47.8437 16.2575 48.5366 16.9505 48.5366 17.8022C48.5365 18.6537 47.8437 19.3466 46.992 19.3466ZM46.992 14.7696H35.2936C35.2936 13.8545 35.2936 12.6418 35.2936 11.6804H46.992C47.8437 11.6804 48.5366 12.3734 48.5366 13.225C48.5366 14.0767 47.8437 14.7696 46.992 14.7696Z" fill="#007A65"/>
</svg>

<svg width="50" height="48" fill="none" xmlns="http://www.w3.org/2000/svg"><path d="M48.94 15.514A3.002 3.002 0 0050 13.225a3.011 3.011 0 00-3.008-3.008h-8.833l1.158-2.47a.732.732 0 10-1.325-.62l-1.45 3.09h-1.248v-.123a3.976 3.976 0 00-3.972-3.972H30.6l-1.15-2.58c-.18-.457-.13-.977.137-1.394a1.428 1.428 0 011.223-.673c.512 0 .982.236 1.288.649a.732.732 0 001.175 0 1.591 1.591 0 011.289-.65c.512 0 .982.237 1.288.65a.732.732 0 001.175 0 1.591 1.591 0 011.372-.647 1.43 1.43 0 011.14.671c.265.415.316.933.14 1.389l-.274.581a.732.732 0 101.325.622l.282-.602a3.01 3.01 0 00-.24-2.777A2.875 2.875 0 0038.314.01a3.08 3.08 0 00-1.876.643A3.08 3.08 0 0034.562.01a3.08 3.08 0 00-1.876.643 3.08 3.08 0 00-2.034-.639 2.874 2.874 0 00-2.298 1.346 3.01 3.01 0 00-.247 2.764l.89 1.997h-.407a5.168 5.168 0 00-4.084 1.982l-2.402 3.05a2.705 2.705 0 01-2.138 1.038h-2.175v-.152a1.12 1.12 0 00-1.118-1.118H1.118A1.12 1.12 0 000 12.04v13.792a1.12 1.12 0 001.118 1.119h8.213a.732.732 0 100-1.464H1.463V12.385h14.864v13.102h-3.566a.732.732 0 000 1.464h3.912a1.12 1.12 0 001.118-1.119v-.528h1.775c.63 0 1.244.22 1.73.621l1.647 1.357-.877 1.557a12.79 12.79 0 00-1.599 7.485 12.789 12.789 0 002.942 7.066 12.814 12.814 0 009.85 4.599h2.607c3.812 0 7.401-1.676 9.849-4.6a12.79 12.79 0 002.942-7.065 12.79 12.79 0 00-1.6-7.485l-.818-1.453a2.99 2.99 0 00-.428-2.024 3.012 3.012 0 002.625-2.983 2.99 2.99 0 00-.535-1.71A3.013 3.013 0 0050 17.802c0-.916-.412-1.736-1.06-2.288zm-26.713 9.282a4.194 4.194 0 00-2.661-.955h-1.775V13.656h2.175a4.16 4.16 0 003.287-1.596l2.403-3.05a3.713 3.713 0 012.934-1.425h2.732a2.511 2.511 0 012.508 2.509v6.024c0 .77-.626 1.395-1.395 1.395a1.396 1.396 0 01-1.394-1.395v-5.17a.732.732 0 10-1.463 0v4.556l-5.905 10.483-1.446-1.191zm24.972 11.393a11.331 11.331 0 01-2.606 6.261 11.354 11.354 0 01-8.727 4.075h-2.608a11.354 11.354 0 01-8.727-4.075 11.332 11.332 0 01-2.607-6.26 11.331 11.331 0 011.418-6.633l6.696-11.887c.095.146.203.284.322.41l.005.005c.3.317.644.551 1.02.7a3.013 3.013 0 002.842 2.025h.047a2.99 2.99 0 00-.443 1.57c0 1.21.72 2.255 1.753 2.732a2.992 2.992 0 00-.634 1.844 3.011 3.011 0 003.008 3.008h5.304A3 3 0 0045.468 29l.314.558a11.332 11.332 0 011.417 6.632zm-10.786-9.233c0-.852.693-1.544 1.544-1.544h5.305c.852 0 1.545.692 1.545 1.544 0 .852-.693 1.545-1.545 1.545h-5.305a1.546 1.546 0 01-1.544-1.545zm9.015-3.032h-8.59a1.546 1.546 0 01-1.544-1.545c0-.852.693-1.545 1.545-1.545h8.589c.851 0 1.544.694 1.544 1.545 0 .852-.693 1.545-1.544 1.545zm1.564-4.577H34.227c-.427 0-.814-.177-1.093-.459A2.883 2.883 0 0034.585 18a2.87 2.87 0 00.704-1.742h11.703c.852 0 1.545.693 1.545 1.544 0 .852-.693 1.545-1.545 1.545zm0-4.577H35.294v-3.09h11.698c.852 0 1.545.693 1.545 1.545s-.693 1.545-1.545 1.545z" fill="#007A65"/></svg>
